icons/beef.svg

<svg width="24" height="24" viewBox="0 0 24 24" fill="none" xmlns="http://www.w3.org/2000/svg">
<path d="M2 11.8243C2 18.8983 8.82927 17.4628 12.2439 14.8998C15.6585 12.3369 19.0732 12.8495 20.5366 11.8243C21.7073 11.0042 22 10.1157 22 9.77398M2 11.8243C2 10.9198 2.04681 10.1107 2.12852 9.38908C2.57254 5.46738 6.26299 3.09137 10.2105 3.0059C13.1644 2.94194 22 2.92924 22 6.82301V9.77398M2 11.8243V16.9502C2 23.6138 8.82927 22.5886 12.2439 20.0257C15.6585 17.4628 19.0732 17.9754 20.5366 16.9502C21.7073 16.13 22 15.2416 22 14.8998V9.77398" stroke="black" stroke-width="2" stroke-linecap="round" stroke-linejoin="round"/>
<path d="M10 16.1819L2.31238 8.49762" stroke="black" stroke-width="2" stroke-linecap="round" stroke-linejoin="round"/>
<path d="M15 12.9957L6 3.99957" stroke="black" stroke-width="2" stroke-linecap="round" stroke-linejoin="round"/>
<path d="M20 10.4967L13 3.49979" stroke="black" stroke-width="2" stroke-linecap="round" stroke-linejoin="round"/>
</svg>

<svg xmlns="http://www.w3.org/2000/svg" width="24" height="24" viewBox="0 0 24 24" fill="none" stroke="currentColor" stroke-width="2" stroke-linecap="round" stroke-linejoin="round">
<path d="M2 11.824c0 7.074 6.83 5.639 10.244 3.076 3.415-2.563 6.83-2.05 8.293-3.076 1.17-.82 1.463-1.708 1.463-2.05m-20 2.05c0-.904.047-1.713.129-2.435.444-3.922 4.134-6.298 8.082-6.383C13.164 2.942 22 2.929 22 6.823v2.951m-20 2.05v5.126c0 6.664 6.83 5.639 10.244 3.076 3.415-2.563 6.83-2.05 8.293-3.076C21.707 16.13 22 15.242 22 14.9V9.774m-12 6.408L2.312 8.498M15 12.996 6 4m14 6.497L13 3.5"/>
</svg>
